assets/icons/utility/toggle.svg

<?xml version="1.0"?><svg xmlns="http://www.w3.org/2000/svg" width="52" height="52" viewBox="0 0 52 52"><title></title><desc></desc><g fill="#fff"><path d="m39.2 2h-26.8c-5.8 0.2-10.4 4.9-10.4 10.8s4.6 10.6 10.4 10.8h26.8c5.9 0 10.8-4.8 10.8-10.8s-4.8-10.8-10.8-10.8z m-26.5 16.8c-3.3 0-6-2.7-6-6s2.7-6 6-6 6 2.7 6 6-2.7 6-6 6z m26.5 9.7h-26.8c-5.8 0.2-10.4 4.9-10.4 10.7s4.6 10.6 10.4 10.8h26.8c6 0 10.8-4.8 10.8-10.8s-4.8-10.7-10.8-10.7z m0.4 18.4h-27.3c-4-0.2-7.2-3.5-7.2-7.6s3.2-7.4 7.2-7.6h27.3c4 0.2 7.2 3.5 7.2 7.6s-3.2 7.4-7.2 7.6z"></path><circle cx="39.2" cy="39.2" r="5.2"></circle></g></svg>

<svg xmlns="http://www.w3.org/2000/svg" x="0px" y="0px"
	 width="52px" height="52px" viewBox="0 0 52 52" enable-background="new 0 0 52 52" xml:space="preserve">
<g>
	<path fill="#FFFFFF" d="M39.2,2c-0.1,0-9,0-26.8,0C6.6,2.2,2,6.9,2,12.8s4.6,10.6,10.4,10.8c17.8,0,26.7,0,26.8,0
		c5.9,0,10.8-4.8,10.8-10.8S45.2,2,39.2,2z M12.7,18.8c-3.3,0-6-2.7-6-6s2.7-6,6-6s6,2.7,6,6S16,18.8,12.7,18.8z"/>
	<path fill="#FFFFFF" d="M39.2,28.5c-0.1,0-9,0-26.8,0C6.6,28.7,2,33.4,2,39.2S6.6,49.8,12.4,50c17.8,0,26.7,0,26.8,0
		C45.2,50,50,45.2,50,39.2S45.2,28.5,39.2,28.5z M39.6,46.9L39.6,46.9l-27.3,0v0c-4-0.2-7.2-3.5-7.2-7.6s3.2-7.4,7.2-7.6v0h27.3v0
		c4,0.2,7.2,3.5,7.2,7.6S43.6,46.7,39.6,46.9z"/>
	<circle fill="#FFFFFF" cx="39.2" cy="39.2" r="5.2"/>
</g>
</svg>
